X:1
T:Verbum caro factum est
T:Mateo Flecha el Viejo (?)
T:Source : Cancionero de Uppsala : Villancicos---Venetia---G.Scotto---1556. Editor : André Vierendeels (15/04/17).
T:Notes : Original clefs : C2, C3, C4, F4 Original note values have been halved Dotted brackets indicate black notes "Villancico per la Navidad"
T:Verbum caro factum est
T:©
T:©
T:©
C:Mateo Flecha el Viejo (?)
Z:©
%%score [ 1 [ 2 3 ] 4 ]
L:1/8
Q:1/4=120
M:3/2
K:F
V:1 treble nm="Alto" snm="A"
V:2 treble-8 nm="Tenor 1" snm="T 1"
V:3 treble-8 nm="Tenor 2" snm="T 2"
V:4 bass nm="Bass" snm="B"
V:1
 F8 F4 | F8 E4 | G8 G4 | A8 z4 :: A6 G2 F2 E2 | D4 C4 D2 E2 | F8 E4 | F12 :: A8 B4 | A4 G6 F2 | %10
w: Ver- bum|ca- ro|fac- tum|est,|por- * * que|to- os ho _|sal- *|veys.|La vir-|gen la Vir-|
w: ||||||||Yor- ri-|que- zas _|
 F8 E4 | F8 F4 | z12 | z12 | z12 | z12 | A8 A4 | A8 G4 | B8 B4 | c8 B4 :: A6 G2 F2 E2 | %21
w: gen la|de- zia,|||||hy- o|mi- o|que- os'ha-|ri- a|que- * * no|
w: tem- po-|ra- les,|||||A'Ie- su|quen- te|can- to|ma- les|es _ _ nas-|
 D4 C4 D2 E2 | F8 E4 | F12 :| %24
w: ten- go'en que- os|be- *|cheys.|
w: çi- do se- gun|ve- *|ys.|
V:2
 c8 c4 | d8 c4 | d8 e4 | f8 z4 :: f8 f4 | f8 f4 | d4 c8 | c12 :: f6 e2 d4 | c4 B4 A4 | F4 G8 | %11
w: Ver- bum|ca- ro|fac- tum|est,|por que|to- dos|hos sal-|veys.|La _ _|Vir- * *|gen la|
w: ||||||||Yor- * *|ri- que- zas|tem- po-|
 F8 F4 | z12 | z12 | z12 | z12 | z12 | z12 | z12 | z12 :: f8 f4 | f8 f4 | d4 c4 c4 | c12 :| %24
w: de- zia|||||||||que- no|ten- go'en-|que- os be-|cheys.|
w: ra- les,|||||||||es nas-|çi- do|se- * gun|veys.|
V:3
 F6 G2 A4 | B8 G4 | B8 B4 | c8 z4 :: c4 A8 | B4 A8 | B4 G8 | F12 :: z12 | z12 | z12 | z12 | c8 d4 | %13
w: Ver- * bum|ca- ro|fac- tum|est,|por- que|to- dos|hos sal-|veys.|||||Vi- de|
w: ||||||||||||No da-|
 c4 B6 A2 | G2 F2 G8 | F8 F4 | z12 | z12 | z12 | z12 :: A8 A4 | B4 A8 | B4 G8 | F12 :| %24
w: de la _|_ vi- da|mi- a,|||||que no|ten- go'en|que'hos be-|cheys.|
w: reys u- *|* nos pa-|nya- les,|||||es nas-|çi- do|se- gun|veys|
V:4
 F,8 F,4 | B,,8 C,4 | G,8 G,4 | F,8 z4 :: F,6 E,2 D,2 C,2 | B,,4 F,4 D,4 | B,,4 C,8 | F,,12 :: %8
w: Ver- bum|ca- ro|fac- tum|est,|por- * * que|to- dos hos|sal- *|veys.|
w: ||||||||
 z12 | z12 | z12 | z12 | F,8 D,4 | E,2 F,2 G,6 F,2 | F,8 E,4 | F,8 F,4 | z12 | z12 | z12 | z12 :: %20
w: ||||Vi- da|de- * * la|vi- da|mi- a,|||||
w: ||||No da-|reys _ _ u-|nos pa-|nya- les,|||||
 F,6 E,2 D,2 C,2 | B,,4 F,4 D,4 | B,,4 C,8 | F,,12 :| %24
w: que no ten- go|en que hos|be- *|cheys|
w: es nas- çi- *|* * do|se- gun|veys.|

